source/i/logo.svg

<?xml version="1.0" encoding="utf-8"?>
<!-- Generator: Adobe Illustrator 16.0.3, SVG Export Plug-In . SVG Version: 6.00 Build 0)  -->
<!DOCTYPE svg PUBLIC "-//W3C//DTD SVG 1.1//EN" "http://www.w3.org/Graphics/SVG/1.1/DTD/svg11.dtd">
<svg version="1.1" id="Layer_1" xmlns="http://www.w3.org/2000/svg" xmlns:xlink="http://www.w3.org/1999/xlink" x="0px" y="0px"
	 width="206px" height="388px" viewBox="0 0 206 388" xml:space="preserve">
<g id="Layer_2">
	<path fill-opacity="0" stroke="#FFFFFF" stroke-width="4" d="M308.925,305.706c-103,0-164,17.667-171.667,20.334
		c-6,7-15,44-13.737,71c-1.263,26.442,7.737,62.677,13.737,69.532c7.667,2.611,68.667,19.913,171.667,19.913
		c100.324,0,159.739-17.302,167.207-19.913c5.844-6.855,14.61-43.09,13.38-69.532c1.23-27-7.536-64-13.38-71
		C468.664,323.373,409.249,305.706,308.925,305.706"/>
	<path fill-opacity="0" stroke="#FFFFFF" stroke-width="7" d="M309.067,293.5c-103,0-173.94,20.27-181.607,22.936
		c-6,7-15.989,53.064-14.726,80.064c-1.263,26.788,8.726,72.49,14.726,79.435c7.667,2.646,78.607,22.757,181.607,22.757
		c100.323,0,169.421-20.11,176.888-22.757c5.844-6.944,15.574-52.646,14.344-79.435c1.23-27-8.5-73.064-14.344-80.064
		C478.488,313.77,409.391,293.5,309.067,293.5"/>
	<path fill="#FFFFFF" d="M180.62,382.493c1.978,1.564,2.967,3.6,2.967,6.107c0,2.139-0.759,3.968-2.277,5.486
		c-1.518,1.518-3.347,2.276-5.486,2.276h-14.662v-25.875h12.937c2.139,0,3.968,0.759,5.486,2.277
		c1.518,1.519,2.277,3.347,2.277,5.486C181.862,379.791,181.448,381.205,180.62,382.493z M166.337,380.837h7.762
		c0.713,0,1.323-0.253,1.829-0.759c0.506-0.506,0.759-1.115,0.759-1.828s-0.253-1.322-0.759-1.828
		c-0.506-0.506-1.116-0.759-1.829-0.759h-7.762V380.837z M166.302,391.188h9.522c0.713,0,1.323-0.253,1.829-0.76
		c0.506-0.506,0.759-1.116,0.759-1.828c0-0.713-0.253-1.323-0.759-1.828c-0.506-0.506-1.116-0.759-1.829-0.759h-9.522V391.188z
		 M201.697,396.362v-25.875h18.975v5.176h-13.8v7.762h10.35v5.175h-10.35v2.588h13.8v5.174H201.697z M240.507,396.362v-25.875h1.38
		l15.87,15.112v-15.112h5.175v25.875h-1.415l-15.835-15.111v15.111H240.507z M280.524,392.671l-0.517-0.69l4.105-3.174l0.518,0.69
		c0.874,1.127,2.013,1.691,3.415,1.691c1.196,0,2.214-0.42,3.054-1.26c0.839-0.839,1.259-1.857,1.259-3.053v-16.388h5.175v16.388
		c0,2.622-0.926,4.859-2.778,6.71c-1.851,1.852-4.088,2.777-6.71,2.777c-1.518,0-2.932-0.328-4.243-0.983
		S281.398,393.821,280.524,392.671z M335.101,396.362l-2.381-4.312h-13.316l-2.347,4.312h-5.898l14.904-27.289L341,396.362H335.101z
		 M322.232,386.875h7.658l-3.828-7.038L322.232,386.875z M356.73,396.362l2.001-25.875h1.311l9.349,10.109l9.315-10.109h1.346
		l1.966,25.875h-5.175l-1.138-14.973l-6.314,6.831l-6.312-6.831l-1.173,14.973H356.73z M406.683,370.487v25.875h-5.175v-25.875
		H406.683z M426.863,396.362v-25.875h1.38l15.87,15.112v-15.112h5.175v25.875h-1.414l-15.836-15.111v15.111H426.863z"/>
	<path fill="#FFFFFF" d="M242.3,430.245c0.84,0,1.628-0.186,2.363-0.556c0.734-0.372,1.347-0.887,1.837-1.545l1.659,1.281
		c-0.686,0.896-1.54,1.606-2.562,2.132s-2.121,0.787-3.297,0.787c-2.03,0-3.763-0.717-5.198-2.151
		c-1.435-1.436-2.152-3.168-2.152-5.198s0.717-3.763,2.152-5.197c1.435-1.436,3.168-2.153,5.198-2.153
		c1.176,0,2.275,0.263,3.297,0.788s1.876,1.235,2.562,2.132l-1.659,1.28c-0.49-0.657-1.103-1.172-1.837-1.543
		c-0.735-0.371-1.523-0.557-2.363-0.557c-1.442,0-2.677,0.511-3.706,1.533c-1.029,1.021-1.544,2.261-1.544,3.717
		s0.515,2.695,1.544,3.717C239.623,429.734,240.858,430.245,242.3,430.245z M269.059,417.645h2.1v14.7h-2.1v-4.725h-8.4v4.725h-2.1
		v-14.7h2.1v7.875h8.4V417.645z M295.503,432.345l-1.449-2.625h-8.736l-1.428,2.625h-2.394l8.19-14.994l8.211,14.994H295.503z
		 M286.473,427.62h6.447l-3.234-5.901L286.473,427.62z M315.773,427.62l3.107,4.725h-2.52l-2.751-4.2h-0.126h-3.15v4.2h-2.1v-14.7
		h5.25c1.441,0,2.677,0.512,3.706,1.533c1.029,1.022,1.544,2.262,1.544,3.717c0,1.022-0.27,1.957-0.809,2.805
		C317.387,426.546,316.669,427.186,315.773,427.62z M310.334,419.745v6.3h3.15c0.867,0,1.609-0.308,2.226-0.924
		s0.924-1.358,0.924-2.227c0-0.867-0.308-1.609-0.924-2.226s-1.358-0.924-2.226-0.924H310.334z M332.557,417.645v14.7h-2.1v-14.7
		H332.557z M343.377,417.645h12.6v2.101h-5.25v12.6h-2.1v-12.6h-5.25V417.645z M375.512,417.645h2.479l-5.922,9.43v5.271h-2.101
		v-5.271l-5.9-9.43h2.478l4.473,7.141L375.512,417.645z"/>
</g>
</svg>

<?xml version="1.0" encoding="UTF-8"?>
<!DOCTYPE svg PUBLIC "-//W3C//DTD SVG 1.1//EN" "http://www.w3.org/Graphics/SVG/1.1/DTD/svg11.dtd">
<svg version="1.1" xmlns="http://www.w3.org/2000/svg" xmlns:xlink="http://www.w3.org/1999/xlink" x="0" y="0" width="100%" height="auto" viewBox="0, 0, 612, 792" preserveAspectRatio="xMinYMin meet">
  <g id="Layer 2">
    <path d="M308.925,305.706 C205.925,305.706 144.925,323.373 137.258,326.04 C131.258,333.04 122.258,370.04 123.521,397.04 C122.258,423.482 131.258,459.717 137.258,466.572 C144.925,469.184 205.925,486.485 308.925,486.485 C409.249,486.485 468.664,469.184 476.132,466.572 C481.976,459.717 490.742,423.482 489.512,397.04 C490.742,370.04 481.976,333.04 476.132,326.04 C468.664,323.373 409.249,305.706 308.925,305.706" fill-opacity="0" stroke="#FFFFFF" stroke-width="4"/>
    <path d="M309.067,293.5 C206.067,293.5 135.127,313.77 127.46,316.436 C121.46,323.436 111.471,369.5 112.734,396.5 C111.471,423.288 121.46,468.99 127.46,475.935 C135.127,478.581 206.067,498.691 309.067,498.691 C409.391,498.691 478.488,478.581 485.955,475.935 C491.799,468.99 501.529,423.288 500.299,396.5 C501.529,369.5 491.799,323.436 485.955,316.436 C478.488,313.77 409.391,293.5 309.067,293.5" fill-opacity="0" stroke="#FFFFFF" stroke-width="7"/>
    <path d="M180.62,382.493 Q183.587,384.84 183.587,388.6 Q183.587,391.809 181.31,394.086 Q179.033,396.362 175.824,396.362 L161.162,396.362 L161.162,370.487 L174.099,370.487 Q177.308,370.487 179.585,372.764 Q181.862,375.042 181.862,378.25 Q181.862,380.561 180.62,382.493 z M166.337,380.837 L174.099,380.837 Q175.169,380.837 175.928,380.078 Q176.687,379.319 176.687,378.25 Q176.687,377.181 175.928,376.422 Q175.169,375.663 174.099,375.663 L166.337,375.663 z M166.302,391.188 L175.824,391.188 Q176.894,391.188 177.653,390.428 Q178.412,389.669 178.412,388.6 Q178.412,387.53 177.653,386.772 Q176.894,386.013 175.824,386.013 L166.302,386.013 z M201.697,396.362 L201.697,370.487 L220.672,370.487 L220.672,375.663 L206.872,375.663 L206.872,383.425 L217.222,383.425 L217.222,388.6 L206.872,388.6 L206.872,391.188 L220.672,391.188 L220.672,396.362 z M240.507,396.362 L240.507,370.487 L241.887,370.487 L257.757,385.599 L257.757,370.487 L262.932,370.487 L262.932,396.362 L261.517,396.362 L245.682,381.251 L245.682,396.362 z M280.524,392.671 L280.007,391.981 L284.112,388.807 L284.63,389.497 Q285.941,391.188 288.045,391.188 Q289.839,391.188 291.099,389.928 Q292.358,388.669 292.358,386.875 L292.358,370.487 L297.533,370.487 L297.533,386.875 Q297.533,390.808 294.755,393.585 Q291.978,396.362 288.045,396.362 Q285.768,396.362 283.802,395.379 Q281.835,394.396 280.524,392.671 z M335.101,396.362 L332.72,392.05 L319.403,392.05 L317.057,396.362 L311.158,396.362 L326.062,369.073 L341,396.362 z M322.232,386.875 L329.891,386.875 L326.062,379.837 z M356.73,396.362 L358.731,370.487 L360.042,370.487 L369.391,380.596 L378.706,370.487 L380.052,370.487 L382.018,396.362 L376.843,396.362 L375.705,381.389 L369.391,388.22 L363.078,381.389 L361.905,396.362 z M406.683,370.487 L406.683,396.362 L401.508,396.362 L401.508,370.487 z M426.863,396.362 L426.863,370.487 L428.243,370.487 L444.113,385.599 L444.113,370.487 L449.288,370.487 L449.288,396.362 L447.874,396.362 L432.038,381.251 L432.038,396.362 z" fill="#FFFFFF"/>
    <path d="M242.3,430.245 Q243.56,430.245 244.663,429.689 Q245.765,429.132 246.5,428.145 L248.159,429.426 Q247.13,430.77 245.597,431.558 Q244.064,432.345 242.3,432.345 Q239.255,432.345 237.102,430.193 Q234.95,428.04 234.95,424.995 Q234.95,421.95 237.102,419.798 Q239.255,417.645 242.3,417.645 Q244.064,417.645 245.597,418.433 Q247.13,419.22 248.159,420.564 L246.5,421.845 Q245.765,420.858 244.663,420.302 Q243.56,419.745 242.3,419.745 Q240.137,419.745 238.594,421.278 Q237.05,422.811 237.05,424.995 Q237.05,427.179 238.594,428.712 Q240.137,430.245 242.3,430.245 z M269.059,417.645 L271.159,417.645 L271.159,432.345 L269.059,432.345 L269.059,427.62 L260.659,427.62 L260.659,432.345 L258.559,432.345 L258.559,417.645 L260.659,417.645 L260.659,425.52 L269.059,425.52 z M295.503,432.345 L294.054,429.72 L285.318,429.72 L283.89,432.345 L281.496,432.345 L289.686,417.351 L297.897,432.345 z M286.473,427.62 L292.92,427.62 L289.686,421.719 z M315.773,427.62 L318.881,432.345 L316.361,432.345 L313.61,428.145 L313.484,428.145 L310.334,428.145 L310.334,432.345 L308.234,432.345 L308.234,417.645 L313.484,417.645 Q315.647,417.645 317.19,419.178 Q318.734,420.711 318.734,422.895 Q318.734,424.428 317.926,425.699 Q317.117,426.969 315.773,427.62 z M310.334,419.745 L310.334,426.045 L313.484,426.045 Q314.786,426.045 315.71,425.121 Q316.634,424.197 316.634,422.895 Q316.634,421.593 315.71,420.669 Q314.786,419.745 313.484,419.745 z M332.557,417.645 L332.557,432.345 L330.457,432.345 L330.457,417.645 z M343.377,417.645 L355.977,417.645 L355.977,419.745 L350.727,419.745 L350.727,432.345 L348.627,432.345 L348.627,419.745 L343.377,419.745 z M375.512,417.645 L377.99,417.645 L372.068,427.074 L372.068,432.345 L369.968,432.345 L369.968,427.074 L364.067,417.645 L366.545,417.645 L371.018,424.785 z" fill="#FFFFFF"/>
  </g>
  <defs/>
</svg>
